svgs/sharp-solid/road-bridge.svg

<svg xmlns="http://www.w3.org/2000/svg" viewBox="0 0 640 512"><!--! Font Awesome Pro 6.6.0 by @fontawesome - https://fontawesome.com License - https://fontawesome.com/license (Commercial License) Copyright 2024 Fonticons, Inc. --><path d="M320 0L640 0l0 512-320 0L320 0zM504 200l-48 0 0 24 0 64 0 24 48 0 0-24 0-64 0-24zm0 184l0-24-48 0 0 24 0 64 0 24 48 0 0-24 0-64zm0-344l-48 0 0 24 0 64 0 24 48 0 0-24 0-64 0-24zM32 96l256 0 0 64-40 0 0 64 40 0 0 96c-53 0-96 43-96 96l0 96-96 0 0-96c0-53-43-96-96-96l0-96 72 0 0-64-40 0L0 160 0 96l32 0zm168 64l-80 0 0 64 80 0 0-64z"/></svg>

<svg xmlns="http://www.w3.org/2000/svg" viewBox="0 0 640 512"><!--! Font Awesome Pro 6.4.2 by @fontawesome - https://fontawesome.com License - https://fontawesome.com/license (Commercial License) Copyright 2023 Fonticons, Inc. --><path d="M320 0H640V512H320V0zM504 200H456v24 64 24h48V288 224 200zm0 184V360H456v24 64 24h48V448 384zm0-344H456V64v64 24h48V128 64 40zM32 96H288v64H248v64h40v96c-53 0-96 43-96 96v96H96V416c0-53-43-96-96-96V224H72V160H32 0V96H32zm168 64H120v64h80V160z"/></svg>
